images/header-logo.svg

<svg width="177" height="52" viewBox="0 0 177 52" fill="none" xmlns="http://www.w3.org/2000/svg">
<path d="M7.79073 23.3826L10.4447 22.0738L14.6397 15.7919L15.9239 15.2685L17.2937 21.6376L15.4958 21.8993L14.126 19.2819L13.0987 23.3826H17.6361L22.3448 24.604L24.2283 23.3826L27.396 26.698L28.7658 20.5906L30.9917 22.8591L32.3615 20.9396L34.5874 20.3289L37.8407 17.2752L38.3543 15.7919L41.0083 16.2282L42.1213 17.7114L40.1522 21.8993L45.0321 19.3691V18.1476L46.9156 17.7114L48.9703 19.8054L51.025 17.2752V15.5302L54.3639 13.1745L55.7337 11.1678H57.874L61.6409 3.40268L64.8942 0L66.0927 1.91946L64.2093 4.36242L64.8942 5.93289L66.692 6.28188L68.1474 12.7383V18.1476L70.7158 21.7248L72 26.698L67.5482 23.8188L65.5791 15.5302L64.3805 15.7919L64.2093 21.3758L60.956 26.698L60.0143 34.8121L62.2402 35.3356L63.1819 34.2013L65.3222 36.6443L66.9489 43.9732L66.7776 48.6846H64.723L63.9524 42.0537L62.497 44.0604L59.3294 43.3624L56.761 41.1812L53.8502 42.2282L54.0214 46.9396L51.7099 47.5503L48.2854 50.1678L44.176 49.6443L42.5494 48.6846L39.981 49.1208L40.8371 50.1678L38.7824 51.3893L37.1558 50.604L34.0737 52L29.365 49.6443L27.5672 45.4564L26.0262 45.6309L24.2283 44.1477L24.1427 43.0134L18.4067 42.4027L17.4649 45.5436L13.8692 43.8859L12.0713 40.8322H8.21879L7.79073 45.7181L5.5648 46.4161L4.45184 50.8658L3.59572 50.0805L0 40.745L4.28062 38.651L3.59572 34.5503L2.91082 30.3624L4.79429 27.6577L4.19501 26L6.76338 23.2081L7.79073 23.3826ZM64.723 33.6779L68.6611 39.6107L69.9453 39.0872L68.3187 36.6443L64.723 32.8054V33.6779ZM24.4851 21.6376V19.8926L27.4816 17.7114L30.0499 16.4027H27.0535L24.3995 17.9732L22.7729 19.4564V21.6376H24.4851Z" fill="white"/>
<path d="M90.125 41.0004H94.8636V35.8186H97.4886C101.469 35.8186 104.136 33.4749 104.136 29.7164C104.136 26.0004 101.537 23.5459 97.6591 23.5459H90.125V41.0004ZM94.8636 32.1368V27.33H96.5341C98.196 27.33 99.1932 28.2164 99.1932 29.7164C99.1932 31.2078 98.196 32.1368 96.5341 32.1368H94.8636Z" fill="white"/>
<path d="M111.969 41.2391C116.23 41.2391 118.753 38.5118 118.753 34.4891C118.753 30.4664 116.23 27.7391 111.969 27.7391C107.707 27.7391 105.185 30.4664 105.185 34.4891C105.185 38.5118 107.707 41.2391 111.969 41.2391ZM112.003 37.7618C110.741 37.7618 109.991 36.509 109.991 34.455C109.991 32.401 110.741 31.1482 112.003 31.1482C113.196 31.1482 113.946 32.401 113.946 34.455C113.946 36.509 113.196 37.7618 112.003 37.7618Z" fill="white"/>
<path d="M126.969 41.2391C130.847 41.2391 133.224 39.0146 133.276 35.5459H128.912C128.81 36.9181 128.068 37.6595 127.037 37.6595C125.801 37.6595 124.991 36.6027 124.991 34.455C124.991 32.3073 125.801 31.2504 127.037 31.2504C128.077 31.2504 128.784 31.9919 128.912 33.3641H133.276C133.25 29.955 130.821 27.7391 126.969 27.7391C122.707 27.7391 120.185 30.4664 120.185 34.4891C120.185 38.5118 122.707 41.2391 126.969 41.2391Z" fill="white"/>
<path d="M141.523 41.2391C145.401 41.2391 147.779 39.0146 147.83 35.5459H143.467C143.364 36.9181 142.623 37.6595 141.592 37.6595C140.356 37.6595 139.546 36.6027 139.546 34.455C139.546 32.3073 140.356 31.2504 141.592 31.2504C142.631 31.2504 143.339 31.9919 143.467 33.3641H147.83C147.805 29.955 145.376 27.7391 141.523 27.7391C137.262 27.7391 134.739 30.4664 134.739 34.4891C134.739 38.5118 137.262 41.2391 141.523 41.2391Z" fill="white"/>
<path d="M154.203 35.0004V27.9095H149.771V41.0004H154.203L157.851 33.8754V41.0004H162.283V27.9095H157.851L154.203 35.0004Z" fill="white"/>
<path d="M172.212 41.0004H176.575V27.9095H170.439C166.663 27.9095 164.277 29.8186 164.303 32.4777C164.286 33.9692 165.18 35.205 166.749 35.9379L164.166 41.0004H168.496L170.703 36.6709H172.212V41.0004ZM172.212 33.8414H170.541C169.288 33.8414 168.709 33.2277 168.734 32.6482C168.709 32.1027 169.254 31.4209 170.439 31.4209H172.212V33.8414Z" fill="white"/>
</svg>

<svg xmlns="http://www.w3.org/2000/svg" fill="none" viewBox="0 0 177 52">
  <path fill="#fff" d="m7.8 23.38 2.64-1.3 4.2-6.29 1.28-.52 1.37 6.37-1.8.26-1.36-2.62-1.03 4.1h4.54l4.7 1.22 1.89-1.22 3.17 3.32 1.37-6.1 2.22 2.26 1.37-1.92 2.23-.61 3.25-3.05.51-1.49 2.66.44 1.11 1.48-1.97 4.19 4.88-2.53v-1.22l1.89-.44 2.05 2.1 2.05-2.53v-1.75l3.34-2.36 1.37-2h2.14l3.77-7.77L64.9 0l1.2 1.92-1.88 2.44.68 1.57 1.8.35 1.46 6.46v5.4l2.57 3.58L72 26.7l-4.45-2.88-1.97-8.29-1.2.26-.17 5.59-3.25 5.32L60 34.8l2.23.53.94-1.14 2.14 2.44 1.63 7.33-.17 4.71h-2.06l-.77-6.63-1.45 2.01-3.17-.7-2.57-2.18-2.91 1.05.17 4.71-2.31.61-3.42 2.62-4.11-.53-1.63-.96-2.57.44.86 1.05-2.06 1.22-1.62-.79-3.09 1.4-4.7-2.36-1.8-4.18-1.54.17-1.8-1.48-.09-1.14-5.73-.6-.95 3.13-3.6-1.65-1.79-3.06H8.22l-.43 4.89-2.23.7-1.1 4.45-.86-.79L0 40.74l4.28-2.09-.68-4.1-.69-4.19 1.88-2.7L4.2 26l2.57-2.8 1.03.18Zm56.92 10.3 3.94 5.93 1.29-.52-1.63-2.45-3.6-3.83v.87ZM24.5 21.64v-1.75l3-2.18 2.56-1.3h-3l-2.65 1.56-1.63 1.49v2.18h1.72ZM90.13 41h4.73v-5.18h2.63c3.98 0 6.65-2.35 6.65-6.1 0-3.72-2.6-6.17-6.48-6.17h-7.53V41Zm4.73-8.86v-4.81h1.67c1.67 0 2.66.89 2.66 2.39 0 1.49-1 2.42-2.66 2.42h-1.67ZM111.97 41.24c4.26 0 6.78-2.73 6.78-6.75s-2.52-6.75-6.78-6.75-6.78 2.73-6.78 6.75 2.52 6.75 6.78 6.75Zm.03-3.48c-1.26 0-2-1.25-2-3.3 0-2.06.74-3.31 2-3.31 1.2 0 1.95 1.25 1.95 3.3 0 2.06-.75 3.31-1.95 3.31ZM126.97 41.24c3.88 0 6.25-2.23 6.3-5.7h-4.36c-.1 1.38-.84 2.12-1.87 2.12-1.24 0-2.05-1.06-2.05-3.2 0-2.15.81-3.21 2.05-3.21 1.04 0 1.74.74 1.87 2.11h4.37c-.03-3.4-2.46-5.62-6.31-5.62-4.26 0-6.78 2.73-6.78 6.75s2.52 6.75 6.78 6.75ZM141.52 41.24c3.88 0 6.26-2.23 6.31-5.7h-4.36c-.1 1.38-.85 2.12-1.88 2.12-1.23 0-2.04-1.06-2.04-3.2 0-2.15.8-3.21 2.04-3.21 1.04 0 1.75.74 1.88 2.11h4.36c-.03-3.4-2.45-5.62-6.3-5.62-4.27 0-6.8 2.73-6.8 6.75s2.53 6.75 6.8 6.75ZM154.2 35v-7.09h-4.43V41h4.43l3.65-7.12V41h4.43V27.91h-4.43L154.2 35ZM172.21 41h4.36V27.91h-6.13c-3.78 0-6.16 1.9-6.14 4.57-.01 1.49.88 2.73 2.45 3.46L164.17 41h4.33l2.2-4.33h1.51V41Zm0-7.16h-1.67c-1.25 0-1.83-.61-1.8-1.2-.03-.54.51-1.22 1.7-1.22h1.77v2.42Z"/>
</svg>
